icon/ir/hd-display.svg

<svg stroke-width="1.5" viewBox="0 0 24 24" fill="none" xmlns="http://www.w3.org/2000/svg" height="1em" width="1em">
  <path d="M5.5 8.5V12M5.5 15.5V12M5.5 12H10M10 12L10 8.5M10 12L10 15.5" stroke="currentColor" stroke-linecap="round" stroke-linejoin="round"/>
  <path d="M13.5 12V8.5C16 8.5 18.5 8.5 18.5 12C18.5 15.5 16 15.5 13.5 15.5V12Z" stroke="currentColor" stroke-linecap="round" stroke-linejoin="round"/>
  <path d="M2 18.4V5.6C2 5.26863 2.26863 5 2.6 5H21.4C21.7314 5 22 5.26863 22 5.6V18.4C22 18.7314 21.7314 19 21.4 19H2.6C2.26863 19 2 18.7314 2 18.4Z" stroke="currentColor"/>
</svg>

<svg width="24" stroke-width="1.5" height="24" fill="none" xmlns="http://www.w3.org/2000/svg"><path d="M5.5 8.5V12m0 3.5V12m0 0H10m0 0V8.5m0 3.5v3.5M13.5 12V8.5c2.5 0 5 0 5 3.5s-2.5 3.5-5 3.5V12Z" stroke="currentColor" stroke-linecap="round" stroke-linejoin="round"/><path d="M2 18.4V5.6a.6.6 0 0 1 .6-.6h18.8a.6.6 0 0 1 .6.6v12.8a.6.6 0 0 1-.6.6H2.6a.6.6 0 0 1-.6-.6Z" stroke="currentColor"/></svg>
